; generated by PrusaSlicer 2.6.1+win64 on 2024-07-12 at 05:01:11 UTC


;
;
; 

; external perimeters extrusion width = 0.45mm
; perimeters extrusion width = 0.45mm
; infill extrusion width = 0.45mm
; solid infill extrusion width = 0.45mm
; top infill extrusion width = 0.40mm
; first layer extrusion width = 0.42mm

; external perimeters extrusion width = 0.45mm
; perimeters extrusion width = 0.45mm
; infill extrusion width = 0.45mm
; solid infill extrusion width = 0.45mm
; top infill extrusion width = 0.40mm
; first layer extrusion width = 0.42mm

; external perimeters extrusion width = 0.45mm
; perimeters extrusion width = 0.45mm
; infill extrusion width = 0.45mm
; solid infill extrusion width = 0.45mm
; top infill extrusion width = 0.40mm
; first layer extrusion width = 0.42mm

; external perimeters extrusion width = 0.45mm
; perimeters extrusion width = 0.45mm
; infill extrusion width = 0.45mm
; solid infill extrusion width = 0.45mm
; top infill extrusion width = 0.40mm
; first layer extrusion width = 0.42mm

M73 P0 R22
M73 Q0 S23
M201 X1000 Y1000 Z200 E5000 ; sets maximum accelerations, mm/sec^2
M203 X200 Y200 Z12 E120 ; sets maximum feedrates, mm / sec
M204 S1250 T1250 ; sets acceleration (S) and retract acceleration (R), mm/sec^2
M205 X8.00 Y8.00 Z0.40 E4.50 ; sets the jerk limits, mm/sec
M205 S0 T0 ; sets the minimum extruding and travel feed rate, mm/sec
;TYPE:Custom
M862.3 P "MK3S" ; printer model check
M862.1 P0.4 ; nozzle diameter check
M115 U3.13.0 ; tell printer latest fw version
G90 ; use absolute coordinates
M83 ; extruder relative mode
M104 S215 ; set extruder temp
M140 S60 ; set bed temp
M190 S60 ; wait for bed temp
M109 S215 ; wait for extruder temp
G28 W ; home all without mesh bed level
G80 ; mesh bed leveling

G1 Z0.2 F720
G1 Y-3 F1000 ; go outside print area
G92 E0
G1 X60 E9 F1000 ; intro line
G1 X100 E12.5 F1000 ; intro line

G92 E0
M221 S95

; Don't change E values below. Excessive value can damage the printer.

M907 E538 ; set extruder motor current
G21 ; set units to millimeters
G90 ; use absolute coordinates
M83 ; use relative distances for extrusion
M900 K0.05 ; Filament gcode LA 1.5
M900 K30 ; Filament gcode LA 1.0
M107
;LAYER_CHANGE
;Z:0.2
;HEIGHT:0.2
;BEFORE_LAYER_CHANGE
G92 E0.0
;0.2


G1 E-.8 F2100
G1 Z.4 F720
;AFTER_LAYER_CHANGE
;0.2
G1 X107.083 Y68.798 F10800
G1 Z.2 F720
G1 E.8 F2100
M204 S800
;TYPE:Skirt/Brim
;WIDTH:0.42
G1 F1200
G1 X110.068 Y65.812 E.13238
G1 X111.636 Y65.117 E.05378
G1 X115.859 Y64.916 E.13256
G1 X144.491 Y64.916 E.89774
G1 X148.714 Y65.117 E.13256
G1 X150.282 Y65.812 E.05378
G1 X153.267 Y68.798 E.13238
G1 X153.962 Y70.479 E.05703
G1 X153.962 Y94.622 E.75699
G1 X153.266 Y96.303 E.05705
G1 X150.278 Y99.291 E.13249
G1 X148.597 Y99.987 E.05705
G1 X111.753 Y99.987 E1.15522
G1 X110.072 Y99.291 E.05705
M73 Q0 S22
G1 X107.084 Y96.303 E.13249
G1 X106.388 Y94.622 E.05705
G1 X106.388 Y70.479 E.75699
G1 X107.06 Y68.854 E.05514
M204 S1000
;WIPE_START
M73 P1 R22
M73 Q1 S22
G1 F8640
G1 X109.496 Y66.39 E-.8
;WIPE_END
G1 Z.6 F720
G1 X109.632 Y70.329 F10800
G1 Z.2 F720
G1 E.8 F2100
M204 S800
G1 F1200
G1 X109.958 Y69.761 E.02053
G1 X110.902 Y68.781 E.04266
G1 X111.81 Y68.224 E.0334
G1 X113.144 Y67.817 E.04373
G1 X114.683 Y67.753 E.0483
G1 X115.993 Y67.576 E.04145
G1 X117.785 Y67.578 E.05619
G1 X118.662 Y67.644 E.02758
G1 X119.275 Y67.751 E.01951
G1 X119.731 Y67.775 E.01432
G1 X121.868 Y67.766 E.067
G1 X122.598 Y67.649 E.02318
G1 X123.351 Y67.585 E.02369
G1 X125.363 Y67.58 E.06309
G1 X126.621 Y67.754 E.03982
G1 X128.145 Y67.815 E.04782
G1 X129.269 Y68.131 E.03661
G1 X130.146 Y68.627 E.03159
G1 X130.983 Y68.169 E.02992
G1 X131.883 Y67.872 E.02972
G1 X133.724 Y67.755 E.05784
G1 X134.964 Y67.582 E.03926
G1 X136.893 Y67.58 E.06048
G1 X137.712 Y67.644 E.02576
G1 X138.325 Y67.751 E.01951
G1 X138.781 Y67.775 E.01432
G1 X140.918 Y67.766 E.067
G1 X141.648 Y67.649 E.02318
G1 X142.417 Y67.584 E.0242
G1 X144.415 Y67.581 E.06265
G1 X145.677 Y67.754 E.03994
G1 X147.401 Y67.85 E.05414
G1 X148.464 Y68.194 E.03503
G1 X149.576 Y68.882 E.041
G1 X150.245 Y69.573 E.03016
G1 X150.726 Y70.27 E.02655
G1 X151.299 Y72.149 E.06159
G1 X151.291 Y80.293 E.25535
G1 X150.887 Y81.784 E.04844
G1 X150.437 Y82.536 E.02748
G1 X150.801 Y83.127 E.02176
G1 X151.299 Y84.848 E.05617
G1 X151.291 Y92.986 E.25516
G1 X150.917 Y94.417 E.04638
G1 X150.102 Y95.702 E.04771
G1 X149.489 Y96.28 E.02642
G1 X148.805 Y96.751 E.02604
G1 X146.928 Y97.323 E.06152
G1 X132.493 Y97.323 E.4526
G1 X131.019 Y96.946 E.0477
G1 X130.19 Y96.46 E.03013
G1 X129.53 Y96.857 E.02415
G1 X127.875 Y97.323 E.05391
G1 X113.445 Y97.323 E.45244
G1 X111.966 Y96.945 E.04786
G1 X110.673 Y96.128 E.04796
G1 X110.095 Y95.514 E.02644
G1 X109.624 Y94.83 E.02604
G1 X109.051 Y92.95 E.06162
G1 X109.069 Y84.732 E.25767
G1 X109.521 Y83.186 E.0505
G1 X109.907 Y82.554 E.02322
G1 X109.554 Y81.983 E.02105
G1 X109.06 Y80.312 E.05463
G1 X109.099 Y71.829 E.26598
G1 X109.445 Y70.656 E.03835
G1 X109.603 Y70.381 E.00994
M204 S1000
G1 X109.926 Y70.568 F10800
M204 S800
G1 F1200
G1 X110.272 Y69.971 E.02164
G1 X111.155 Y69.062 E.03973
G1 X111.985 Y68.559 E.03043
G1 X113.184 Y68.193 E.03931
G1 X114.717 Y68.129 E.04811
G1 X116.006 Y67.954 E.04079
G1 X117.778 Y67.955 E.05556
G1 X118.624 Y68.019 E.0266
G1 X119.232 Y68.127 E.01936
G1 X119.722 Y68.152 E.01538
G1 X121.899 Y68.143 E.06826
G1 X122.637 Y68.024 E.02344
G1 X123.36 Y67.962 E.02275
G1 X125.325 Y67.956 E.06161
G1 X126.588 Y68.13 E.03997
G1 X128.064 Y68.184 E.04631
G1 X129.144 Y68.487 E.03517
G1 X130.191 Y69.089 E.03787
G1 X130.375 Y68.932 E.00758
G1 X131.118 Y68.522 E.02661
G1 X131.978 Y68.238 E.0284
G1 X133.761 Y68.13 E.05601
G1 X135.003 Y67.957 E.03932
G1 X136.871 Y67.957 E.05857
G1 X137.674 Y68.019 E.02525
G1 X138.282 Y68.127 E.01936
G1 X138.772 Y68.152 E.01538
G1 X140.949 Y68.143 E.06826
G1 X141.687 Y68.024 E.02344
G1 X142.426 Y67.961 E.02325
G1 X144.402 Y67.958 E.06196
G1 X145.642 Y68.13 E.03925
G1 X147.311 Y68.216 E.0524
G1 X148.287 Y68.528 E.03213
G1 X149.322 Y69.162 E.03806
G1 X149.963 Y69.824 E.02889
G1 X150.399 Y70.459 E.02415
G1 X150.922 Y72.177 E.05631
G1 X150.914 Y80.266 E.25363
G1 X150.531 Y81.658 E.04527
G1 X149.991 Y82.539 E.0324
G1 X150.447 Y83.26 E.02675
G1 X150.922 Y84.875 E.05278
G1 X150.914 Y92.961 E.25353
G1 X150.56 Y94.292 E.04318
G1 X149.827 Y95.444 E.04281
G1 X149.241 Y95.996 E.02524
G1 X148.616 Y96.424 E.02375
G1 X146.9 Y96.946 E.05624
G1 X132.518 Y96.946 E.45094
G1 X131.141 Y96.588 E.04461
G1 X130.187 Y96.018 E.03484
G1 X129.4 Y96.502 E.02897
G1 X127.848 Y96.946 E.05061
G1 X113.47 Y96.946 E.45081
G1 X112.09 Y96.588 E.0447
M73 P2 R22
G1 X110.931 Y95.852 E.04305
G1 X110.379 Y95.266 E.02524
G1 X109.951 Y94.641 E.02375
G1 X109.428 Y92.922 E.05634
G1 X109.446 Y84.76 E.25591
G1 X109.875 Y83.319 E.04714
M73 Q2 S22
G1 X110.354 Y82.552 E.02835
G1 X109.907 Y81.848 E.02615
G1 X109.437 Y80.285 E.05117
G1 X109.468 Y71.91 E.26259
G1 X109.8 Y70.785 E.03678
G1 X109.895 Y70.62 E.00597
M204 S1000
G1 X110.217 Y70.809 F10800
M204 S800
G1 F1200
G1 X110.585 Y70.183 E.02277
G1 X111.406 Y69.344 E.03681
G1 X112.158 Y68.894 E.02748
G1 X113.223 Y68.568 E.03492
G1 X114.751 Y68.505 E.04795
G1 X116.018 Y68.331 E.0401
G1 X117.771 Y68.332 E.05496
G1 X118.586 Y68.394 E.02563
G1 X119.189 Y68.502 E.01921
G1 X119.713 Y68.529 E.01645
G1 X121.931 Y68.52 E.06954
G1 X122.677 Y68.399 E.0237
G1 X123.384 Y68.338 E.02225
G1 X125.312 Y68.333 E.06045
G1 X126.555 Y68.506 E.03935
G1 X128.027 Y68.56 E.04618
G1 X129.017 Y68.843 E.03228
G1 X129.942 Y69.381 E.03355
G1 X130.189 Y69.613 E.01063
G1 X130.581 Y69.249 E.01677
G1 X131.284 Y68.861 E.02518
G1 X132.071 Y68.604 E.02596
G1 X133.797 Y68.506 E.0542
G1 X135.042 Y68.332 E.03942
G1 X136.849 Y68.333 E.05666
G1 X137.635 Y68.394 E.02472
G1 X138.239 Y68.502 E.01924
G1 X138.763 Y68.529 E.01645
G1 X140.981 Y68.52 E.06954
G1 X141.727 Y68.399 E.0237
G1 X142.434 Y68.338 E.02225
G1 X144.39 Y68.335 E.06133
G1 X145.606 Y68.506 E.0385
G1 X147.222 Y68.584 E.05073
G1 X148.112 Y68.863 E.02924
G1 X149.068 Y69.442 E.03504
G1 X149.68 Y70.074 E.02758
G1 X150.071 Y70.647 E.02175
G1 X150.544 Y72.204 E.05102
G1 X150.537 Y80.24 E.25196
G1 X150.175 Y81.529 E.04198
G1 X149.667 Y82.345 E.03014
G1 X149.473 Y82.552 E.0089
G1 X149.747 Y82.858 E.01288
G1 X150.094 Y83.395 E.02005
G1 X150.544 Y84.903 E.04934
G1 X150.537 Y92.937 E.2519
G1 X150.226 Y94.115 E.0382
G1 X149.55 Y95.186 E.03971
G1 X148.994 Y95.711 E.02398
G1 X148.428 Y96.096 E.02146
G1 X146.872 Y96.569 E.05099
G1 X132.543 Y96.569 E.44928
G1 X131.264 Y96.231 E.04148
G1 X130.389 Y95.699 E.03211
G1 X130.171 Y95.495 E.00936
G1 X129.86 Y95.777 E.01316
G1 X129.268 Y96.148 E.02191
G1 X127.821 Y96.569 E.04725
G1 X113.493 Y96.569 E.44924
G1 X112.266 Y96.253 E.03973
G1 X111.189 Y95.575 E.0399
G1 X110.664 Y95.019 E.02398
G1 X110.279 Y94.453 E.02146
G1 X109.806 Y92.895 E.05105
G1 X109.823 Y84.789 E.25416
G1 X110.228 Y83.454 E.04374
G1 X110.625 Y82.83 E.02319
G1 X110.887 Y82.554 E.01193
G1 X110.607 Y82.247 E.01303
G1 X110.259 Y81.711 E.02004
G1 X109.814 Y80.257 E.04768
G1 X109.837 Y71.991 E.25918
G1 X110.155 Y70.914 E.03521
G1 X110.186 Y70.861 E.00193
M204 S1000
G1 X110.51 Y71.044 F10800
M204 S800
G1 F1200
G1 X110.896 Y70.396 E.02365
G1 X111.657 Y69.627 E.03392
G1 X112.33 Y69.231 E.02448
G1 X113.263 Y68.944 E.03061
G1 X114.785 Y68.881 E.04776
G1 X116.031 Y68.708 E.03944
G1 X117.763 Y68.709 E.05431
G1 X118.547 Y68.769 E.02465
G1 X119.145 Y68.877 E.01905
G1 X119.704 Y68.906 E.01755
G1 X121.962 Y68.897 E.0708
G1 X122.73 Y68.772 E.0244
G1 X123.408 Y68.715 E.02133
G1 X125.3 Y68.71 E.05932
G1 X126.522 Y68.882 E.03869
G1 X127.991 Y68.936 E.04609
G1 X128.848 Y69.181 E.02795
G1 X129.728 Y69.693 E.03192
G1 X130.181 Y70.148 E.02013
G1 X130.786 Y69.566 E.02632
G1 X131.45 Y69.2 E.02377
G1 X132.162 Y68.971 E.02345
G1 X133.833 Y68.882 E.05247
G1 X135.081 Y68.708 E.03951
G1 X136.827 Y68.71 E.05474
G1 X137.597 Y68.769 E.02421
G1 X138.195 Y68.877 E.01905
G1 X138.754 Y68.906 E.01755
G1 X141.012 Y68.897 E.0708
G1 X141.78 Y68.772 E.0244
G1 X142.458 Y68.715 E.02133
G1 X144.376 Y68.712 E.06014
G1 X145.572 Y68.882 E.03788
G1 X147.135 Y68.951 E.04905
G1 X147.939 Y69.198 E.02637
G1 X148.815 Y69.722 E.03201
G1 X149.397 Y70.324 E.02625
G1 X149.743 Y70.835 E.01935
G1 X150.167 Y72.232 E.04577
G1 X150.16 Y80.213 E.25024
G1 X149.821 Y81.398 E.03865
G1 X149.362 Y82.122 E.02688
G1 X148.946 Y82.536 E.0184
G1 X149.442 Y83.08 E.02308
G1 X149.741 Y83.532 E.01699
G1 X150.167 Y84.931 E.04585
G1 X150.16 Y92.911 E.25021
G1 X149.869 Y93.989 E.03501
G1 X149.275 Y94.928 E.03484
G1 X148.746 Y95.426 E.02278
G1 X148.241 Y95.767 E.01911
G1 X146.844 Y96.192 E.04578
G1 X132.568 Y96.192 E.44761
G1 X131.39 Y95.875 E.03825
G1 X130.61 Y95.392 E.02877
G1 X130.185 Y94.966 E.01887
G1 X129.641 Y95.47 E.02325
G1 X129.134 Y95.795 E.01888
G1 X127.793 Y96.192 E.04385
G1 X113.518 Y96.192 E.44758
G1 X112.39 Y95.896 E.03657
G1 X111.447 Y95.3 E.03498
G1 X110.949 Y94.771 E.02278
G1 X110.608 Y94.266 E.01911
G1 X110.183 Y92.868 E.04581
G1 X110.2 Y84.819 E.25237
M73 P3 R22
G1 X110.579 Y83.592 E.04027
G1 X110.93 Y83.053 E.02017
G1 X111.411 Y82.562 E.02155
G1 X110.911 Y82.024 E.02303
G1 X110.611 Y81.572 E.01701
G1 X110.192 Y80.228 E.04414
G1 X110.206 Y72.071 E.25576
M73 Q3 S22
G1 X110.493 Y71.102 E.03169
M204 S1000
G1 X110.854 Y71.209 F10800
M204 S800
G1 F1200
G1 X111.206 Y70.612 E.02173
G1 X111.905 Y69.911 E.03104
G1 X112.499 Y69.568 E.02151
G1 X113.303 Y69.32 E.02638
G1 X114.819 Y69.257 E.04757
G1 X116.044 Y69.085 E.03879
G1 X117.756 Y69.086 E.05368
G1 X118.508 Y69.144 E.02365
G1 X119.101 Y69.253 E.0189
G1 X119.695 Y69.283 E.01865
G1 X121.993 Y69.274 E.07205
G1 X122.783 Y69.145 E.0251
M73 P3 R21
G1 X123.432 Y69.091 E.02042
G1 X125.287 Y69.087 E.05816
G1 X126.488 Y69.258 E.03804
G1 X127.954 Y69.312 E.046
G1 X128.678 Y69.518 E.0236
G1 X129.515 Y70.005 E.03036
G1 X130.173 Y70.686 E.02969
G1 X130.993 Y69.882 E.03601
G1 X131.584 Y69.553 E.02121
G1 X132.254 Y69.338 E.02206
G1 X133.869 Y69.257 E.0507
G1 X135.094 Y69.085 E.03879
G1 X136.805 Y69.086 E.05365
G1 X137.558 Y69.144 E.02368
G1 X138.151 Y69.253 E.0189
G1 X138.745 Y69.283 E.01865
G1 X141.043 Y69.274 E.07205
G1 X141.833 Y69.145 E.0251
G1 X142.482 Y69.091 E.02042
G1 X144.337 Y69.087 E.05816
G1 X145.538 Y69.258 E.03804
G1 X147.05 Y69.319 E.04745
G1 X147.768 Y69.535 E.02351
G1 X148.562 Y70.003 E.0289
G1 X149.114 Y70.574 E.0249
G1 X149.414 Y71.021 E.01688
G1 X149.79 Y72.259 E.04057
G1 X149.783 Y80.186 E.24855
G1 X149.488 Y81.219 E.03368
G1 X149.056 Y81.9 E.02529
G1 X148.36 Y82.577 E.03044
G1 X148.652 Y82.774 E.01104
G1 X149.136 Y83.301 E.02243
G1 X149.412 Y83.718 E.01568
G1 X149.79 Y84.959 E.04068
G1 X149.783 Y92.886 E.24855
G1 X149.535 Y93.814 E.03012
G1 X148.998 Y94.67 E.03168
G1 X148.499 Y95.141 E.02151
G1 X148.055 Y95.438 E.01675
G1 X146.816 Y95.815 E.04061
G1 X132.593 Y95.815 E.44595
G1 X131.565 Y95.539 E.03337
G1 X130.829 Y95.084 E.02713
G1 X130.149 Y94.386 E.03055
G1 X129.95 Y94.668 E.01082
G1 X129.423 Y95.162 E.02265
G1 X128.953 Y95.463 E.0175
G1 X127.766 Y95.815 E.03882
G1 X113.542 Y95.815 E.44598
G1 X112.565 Y95.561 E.03165
G1 X111.705 Y95.023 E.03181
G1 X111.234 Y94.524 E.02151
G1 X110.937 Y94.08 E.01675
G1 X110.56 Y92.84 E.04064
G1 X110.577 Y84.848 E.25058
G1 X110.91 Y83.776 E.0352
G1 X111.235 Y83.276 E.0187
G1 X111.985 Y82.522 E.03335
G1 X111.707 Y82.326 E.01067
G1 X111.216 Y81.802 E.02252
G1 X110.94 Y81.386 E.01565
G1 X110.569 Y80.2 E.03896
G1 X110.576 Y72.152 E.25234
G1 X110.837 Y71.266 E.02896
M204 S1000
G1 X111.199 Y71.373 F10800
M204 S800
G1 F1200
G1 X111.218 Y71.307 E.00215
G1 X111.514 Y70.831 E.01757
G1 X112.152 Y70.198 E.02818
G1 X112.667 Y69.906 E.01856
G1 X113.344 Y69.696 E.02222
G1 X114.853 Y69.633 E.04735
G1 X116.058 Y69.462 E.03816
G1 X117.748 Y69.463 E.05299
G1 X118.469 Y69.52 E.02268
G1 X119.057 Y69.628 E.01874
G1 X119.686 Y69.661 E.01975
G1 X122.005 Y69.651 E.07271
G1 X122.231 Y69.63 E.00712
G1 X122.826 Y69.52 E.01897
G1 X123.456 Y69.467 E.01982
G1 X125.274 Y69.464 E.057
G1 X126.454 Y69.634 E.03738
G1 X127.918 Y69.688 E.04593
G1 X128.509 Y69.856 E.01926
G1 X129.301 Y70.317 E.02873
G1 X129.78 Y70.823 E.02185
G1 X130.182 Y71.428 E.02278
G1 X130.563 Y70.832 E.02218
G1 X131.202 Y70.198 E.02822
G1 X131.718 Y69.906 E.01859
G1 X132.345 Y69.704 E.02065
G1 X133.904 Y69.633 E.04893
G1 X135.108 Y69.462 E.03813
G1 X136.783 Y69.463 E.05252
G1 X137.519 Y69.52 E.02315
G1 X138.107 Y69.628 E.01874
G1 X138.736 Y69.661 E.01975
G1 X141.055 Y69.651 E.07271
G1 X141.281 Y69.63 E.00712
G1 X141.876 Y69.52 E.01897
G1 X142.506 Y69.467 E.01982
G1 X144.324 Y69.464 E.057
G1 X145.504 Y69.634 E.03738
G1 X146.967 Y69.688 E.0459
G1 X147.6 Y69.873 E.02068
G1 X148.309 Y70.284 E.0257
G1 X148.831 Y70.823 E.02353
G1 X149.084 Y71.206 E.01439
G1 X149.413 Y72.287 E.03543
G1 X149.406 Y80.16 E.24685
G1 X149.155 Y81.04 E.02869
G1 X148.75 Y81.679 E.02372
G1 X148.252 Y82.155 E.0216
G1 X147.61 Y82.581 E.02416
G1 X148.396 Y83.053 E.02875
G1 X148.848 Y83.545 E.02095
G1 X149.082 Y83.901 E.01336
G1 X149.413 Y84.986 E.03557
G1 X149.406 Y92.86 E.24688
G1 X149.179 Y93.686 E.02686
G1 X148.722 Y94.412 E.0269
G1 X148.253 Y94.855 E.02023
G1 X147.87 Y95.109 E.01441
G1 X146.788 Y95.438 E.03546
G1 X132.617 Y95.438 E.44432
G1 X131.74 Y95.204 E.02846
G1 X131.048 Y94.776 E.02551
G1 X130.57 Y94.277 E.02167
G1 X130.159 Y93.658 E.0233
G1 X129.673 Y94.411 E.0281
G1 X129.178 Y94.874 E.02125
G1 X128.774 Y95.13 E.015
G1 X127.739 Y95.438 E.03386
G1 X113.567 Y95.438 E.44435
G1 X112.69 Y95.204 E.02846
G1 X111.963 Y94.747 E.02692
G1 X111.52 Y94.278 E.02023
G1 X111.266 Y93.895 E.01441
G1 X110.937 Y92.813 E.03546
G1 X110.954 Y84.877 E.24883
G1 X111.241 Y83.958 E.03019
G1 X111.517 Y83.527 E.01605
G1 X112.115 Y82.926 E.02658
G1 X112.745 Y82.552 E.02297
G1 X111.964 Y82.048 E.02914
G1 X111.503 Y81.556 E.02114
M73 P4 R21
G1 X111.269 Y81.201 E.01333
G1 X110.946 Y80.171 E.03385
G1 X110.945 Y72.233 E.24889
G1 X111.182 Y71.43 E.02625
M204 S1000
G1 X111.542 Y71.54 F10800
M204 S800
G1 F1200
G1 X111.571 Y71.442 E.0032
G1 X111.797 Y71.081 E.01335
G1 X112.362 Y70.511 E.02516
G1 X112.803 Y70.259 E.01593
G1 X113.385 Y70.071 E.01918
