; generated by PrusaSlicer 2.6.1+win64 on 2024-07-12 at 08:47:34 UTC


;
;
; 

; external perimeters extrusion width = 0.45mm
; perimeters extrusion width = 0.45mm
; infill extrusion width = 0.45mm
; solid infill extrusion width = 0.45mm
; top infill extrusion width = 0.40mm
; first layer extrusion width = 0.42mm

; external perimeters extrusion width = 0.45mm
; perimeters extrusion width = 0.45mm
; infill extrusion width = 0.45mm
; solid infill extrusion width = 0.45mm
; top infill extrusion width = 0.40mm
; first layer extrusion width = 0.42mm

; external perimeters extrusion width = 0.45mm
; perimeters extrusion width = 0.45mm
; infill extrusion width = 0.45mm
; solid infill extrusion width = 0.45mm
; top infill extrusion width = 0.40mm
; first layer extrusion width = 0.42mm

; external perimeters extrusion width = 0.45mm
; perimeters extrusion width = 0.45mm
; infill extrusion width = 0.45mm
; solid infill extrusion width = 0.45mm
; top infill extrusion width = 0.40mm
; first layer extrusion width = 0.42mm

M73 P0 R47
M73 Q0 S47
M201 X1000 Y1000 Z200 E5000 ; sets maximum accelerations, mm/sec^2
M203 X200 Y200 Z12 E120 ; sets maximum feedrates, mm / sec
M204 S1250 T1250 ; sets acceleration (S) and retract acceleration (R), mm/sec^2
M205 X8.00 Y8.00 Z0.40 E4.50 ; sets the jerk limits, mm/sec
M205 S0 T0 ; sets the minimum extruding and travel feed rate, mm/sec
;TYPE:Custom
M862.3 P "MK3S" ; printer model check
M862.1 P0.4 ; nozzle diameter check
M115 U3.13.0 ; tell printer latest fw version
G90 ; use absolute coordinates
M83 ; extruder relative mode
M104 S215 ; set extruder temp
M140 S60 ; set bed temp
M190 S60 ; wait for bed temp
M109 S215 ; wait for extruder temp
G28 W ; home all without mesh bed level
G80 ; mesh bed leveling

G1 Z0.2 F720
G1 Y-3 F1000 ; go outside print area
G92 E0
G1 X60 E9 F1000 ; intro line
G1 X100 E12.5 F1000 ; intro line

G92 E0
M221 S95

; Don't change E values below. Excessive value can damage the printer.

M907 E538 ; set extruder motor current
G21 ; set units to millimeters
G90 ; use absolute coordinates
M83 ; use relative distances for extrusion
M900 K0.05 ; Filament gcode LA 1.5
M900 K30 ; Filament gcode LA 1.0
M107
;LAYER_CHANGE
;Z:0.2
;HEIGHT:0.2
;BEFORE_LAYER_CHANGE
G92 E0.0
;0.2


M73 P0 R46
G1 E-.8 F2100
G1 Z.4 F720
;AFTER_LAYER_CHANGE
;0.2
G1 X83.589 Y71.337 F10800
G1 Z.2 F720
G1 E.8 F2100
M204 S800
;TYPE:Skirt/Brim
;WIDTH:0.42
G1 F1200
G1 X86.577 Y68.349 E.13249
G1 X88.232 Y67.653 E.05629
G1 X96.621 Y67.564 E.26305
G1 X134.544 Y67.564 E1.18905
G1 X142.908 Y67.653 E.26226
M73 Q0 S46
G1 X144.563 Y68.349 E.05629
G1 X147.551 Y71.337 E.13249
G1 X148.247 Y73.018 E.05705
G1 X148.247 Y109.808 E1.15352
G1 X147.551 Y111.489 E.05705
G1 X144.563 Y114.477 E.13249
G1 X142.887 Y115.173 E.0569
G1 X88.258 Y115.227 E1.71285
G1 X86.577 Y114.531 E.05705
G1 X83.589 Y111.543 E.13249
G1 X82.893 Y109.862 E.05705
G1 X82.893 Y73.018 E1.15522
G1 X83.566 Y71.392 E.05518
M204 S1000
;WIPE_START
G1 F8640
G1 X86.003 Y68.929 E-.8
;WIPE_END
G1 Z.6 F720
G1 X86.085 Y72.941 F10800
G1 Z.2 F720
G1 E.8 F2100
M204 S800
G1 F1200
G1 X86.538 Y72.204 E.02712
G1 X87.378 Y71.345 E.03767
G1 X88.544 Y70.666 E.04231
G1 X89.887 Y70.324 E.04345
G1 X94.97 Y70.31 E.15937
G1 X95.858 Y70.249 E.02791
G1 X96.695 Y70.229 E.02625
G1 X98.242 Y70.314 E.04858
G1 X104.54 Y70.316 E.19747
G1 X105.369 Y70.302 E.026
G1 X106.484 Y70.229 E.03503
G1 X107.298 Y70.247 E.02553
G1 X108.231 Y70.31 E.02932
G1 X113.344 Y70.332 E.16032
G1 X114.619 Y70.65 E.0412
G1 X115.583 Y71.165 E.03427
G1 X116.385 Y70.707 E.02896
G1 X117.773 Y70.331 E.04509
G1 X122.909 Y70.31 E.16104
G1 X123.798 Y70.249 E.02794
G1 X124.635 Y70.229 E.02625
G1 X126.182 Y70.314 E.04858
G1 X132.48 Y70.316 E.19747
G1 X133.309 Y70.302 E.026
G1 X134.424 Y70.229 E.03503
G1 X135.238 Y70.247 E.02553
G1 X136.171 Y70.31 E.02932
G1 X141.284 Y70.332 E.16032
G1 X142.608 Y70.669 E.04284
G1 X143.706 Y71.3 E.03971
G1 X144.568 Y72.16 E.03818
G1 X145.181 Y73.177 E.03723
G1 X145.577 Y74.653 E.04792
G1 X145.576 Y87.916 E.41585
G1 X145.132 Y89.496 E.05146
G1 X144.592 Y90.37 E.03221
G1 X143.876 Y91.119 E.03249
G1 X143.503 Y91.377 E.01422
G1 X144.566 Y92.424 E.04678
G1 X145.182 Y93.445 E.03739
G1 X145.577 Y94.919 E.04785
G1 X145.583 Y108.128 E.41416
G1 X145.135 Y109.754 E.05288
G1 X144.596 Y110.631 E.03228
G1 X143.88 Y111.381 E.03251
G1 X142.837 Y112.054 E.03892
G1 X141.212 Y112.509 E.05291
G1 X117.876 Y112.509 E.73168
G1 X116.294 Y112.079 E.0514
G1 X115.596 Y111.671 E.02535
G1 X115.031 Y112.045 E.02124
G1 X113.277 Y112.563 E.05734
G1 X89.939 Y112.563 E.73175
G1 X88.37 Y112.141 E.05094
G1 X87.474 Y111.606 E.03272
G1 X86.687 Y110.862 E.03396
G1 X86.012 Y109.817 E.03901
G1 X85.557 Y108.192 E.05291
G1 X85.557 Y95.019 E.41303
G1 X85.96 Y93.495 E.04943
G1 X86.503 Y92.568 E.03368
G1 X87.336 Y91.698 E.03777
G1 X87.676 Y91.475 E.01275
G1 X86.661 Y90.512 E.04387
G1 X86.037 Y89.554 E.03585
G1 X85.564 Y87.926 E.05316
G1 X85.564 Y74.646 E.41639
G1 X86.006 Y73.068 E.05138
M73 Q1 S46
G1 X86.053 Y72.992 E.0028
M204 S1000
G1 X86.375 Y73.188 F10800
M204 S800
G1 F1200
G1 X86.823 Y72.452 E.02702
G1 X87.63 Y71.627 E.03619
M73 P1 R46
G1 X88.663 Y71.024 E.0375
G1 X89.912 Y70.701 E.04045
G1 X94.983 Y70.687 E.159
G1 X95.879 Y70.625 E.02816
G1 X96.696 Y70.606 E.02562
G1 X98.231 Y70.691 E.0482
G1 X104.544 Y70.693 E.19794
G1 X105.384 Y70.678 E.02634
G1 X106.484 Y70.607 E.03456
G1 X107.277 Y70.623 E.02487
G1 X108.217 Y70.687 E.02954
G1 X113.319 Y70.709 E.15997
G1 X114.503 Y71.009 E.0383
G1 X115.395 Y71.492 E.0318
G1 X115.551 Y71.62 E.00633
G1 X116.509 Y71.064 E.03473
G1 X117.8 Y70.708 E.04199
G1 X122.923 Y70.687 E.16063
G1 X123.819 Y70.625 E.02816
G1 X124.636 Y70.606 E.02562
G1 X126.172 Y70.691 E.04823
G1 X132.484 Y70.693 E.19791
G1 X133.324 Y70.678 E.02634
G1 X134.44 Y70.606 E.03506
G1 X135.225 Y70.623 E.02462
G1 X136.157 Y70.687 E.02929
G1 X141.259 Y70.709 E.15997
G1 X142.444 Y71.01 E.03833
G1 X143.46 Y71.586 E.03662
G1 X144.259 Y72.377 E.03525
G1 X144.824 Y73.301 E.03396
G1 X145.206 Y74.726 E.04626
G1 X145.199 Y87.89 E.41275
G1 X144.797 Y89.321 E.0466
G1 X144.306 Y90.124 E.02951
G1 X143.62 Y90.842 E.03114
G1 X142.728 Y91.431 E.03352
G1 X143.409 Y91.814 E.0245
G1 X144.284 Y92.676 E.03851
G1 X144.845 Y93.615 E.0343
G1 X145.2 Y94.944 E.04313
G1 X145.206 Y108.103 E.41259
G1 X144.799 Y109.581 E.04807
G1 X144.309 Y110.386 E.02955
G1 X143.622 Y111.105 E.03118
G1 X142.706 Y111.699 E.03423
G1 X141.185 Y112.132 E.04958
G1 X117.902 Y112.132 E.73002
G1 X116.42 Y111.723 E.0482
G1 X115.582 Y111.222 E.03061
G1 X114.893 Y111.693 E.02617
G1 X113.249 Y112.186 E.05381
G1 X89.964 Y112.186 E.73008
G1 X88.54 Y111.803 E.04624
G1 X87.717 Y111.318 E.02995
G1 X86.962 Y110.604 E.03258
G1 X86.366 Y109.686 E.03432
G1 X85.934 Y108.165 E.04958
G1 X85.934 Y95.044 E.4114
G1 X86.299 Y93.662 E.04482
G1 X86.792 Y92.812 E.03081
G1 X87.589 Y91.979 E.03615
G1 X88.453 Y91.45 E.03176
G1 X87.714 Y90.995 E.02721
G1 X86.965 Y90.287 E.03232
G1 X86.369 Y89.371 E.03426
G1 X85.941 Y87.899 E.04806
G1 X85.941 Y74.672 E.41472
G1 X86.344 Y73.239 E.04667
M204 S1000
G1 X86.678 Y73.414 F10800
M204 S800
G1 F1200
G1 X87.109 Y72.698 E.0262
G1 X87.844 Y71.938 E.03315
G1 X88.786 Y71.382 E.0343
G1 X89.938 Y71.079 E.03735
G1 X94.997 Y71.064 E.15862
G1 X95.901 Y71.002 E.02841
G1 X96.697 Y70.983 E.02497
G1 X98.221 Y71.068 E.04786
G1 X104.547 Y71.07 E.19835
G1 X105.4 Y71.055 E.02675
G1 X106.5 Y70.983 E.03456
G1 X107.264 Y71 E.02396
G1 X108.204 Y71.064 E.02954
G1 X113.294 Y71.086 E.15959
G1 X114.385 Y71.368 E.03533
G1 X115.187 Y71.809 E.0287
G1 X115.565 Y72.157 E.01611
G1 X115.867 Y71.873 E.013
G1 X116.636 Y71.42 E.02798
G1 X117.828 Y71.085 E.03882
G1 X122.937 Y71.064 E.16019
G1 X123.841 Y71.002 E.02841
G1 X124.638 Y70.983 E.025
G1 X126.161 Y71.068 E.04783
G1 X132.487 Y71.07 E.19835
G1 X133.34 Y71.055 E.02675
G1 X134.44 Y70.983 E.03456
G1 X135.204 Y71 E.02396
G1 X136.144 Y71.064 E.02954
G1 X141.234 Y71.086 E.15959
G1 X142.282 Y71.351 E.03389
G1 X143.213 Y71.872 E.03345
G1 X143.977 Y72.629 E.03372
G1 X144.468 Y73.427 E.02938
G1 X144.829 Y74.752 E.04306
G1 X144.822 Y87.863 E.41109
G1 X144.442 Y89.191 E.04331
G1 X143.997 Y89.907 E.02643
G1 X143.364 Y90.564 E.02861
G1 X142.572 Y91.081 E.02966
G1 X142.018 Y91.251 E.01817
G1 X142.018 Y91.529 E.00872
G1 X142.23 Y91.595 E.00696
G1 X143.166 Y92.103 E.03339
G1 X143.975 Y92.892 E.03543
G1 X144.488 Y93.739 E.03105
G1 X144.829 Y95.017 E.04147
G1 X144.829 Y108.077 E.40949
G1 X144.463 Y109.409 E.04331
G1 X144.021 Y110.141 E.02681
G1 X143.364 Y110.829 E.02983
G1 X142.574 Y111.345 E.02959
G1 X141.158 Y111.755 E.04622
G1 X117.928 Y111.755 E.72836
G1 X116.548 Y111.367 E.04495
G1 X115.895 Y110.97 E.02396
G1 X115.625 Y110.73 E.01133
G1 X114.753 Y111.341 E.03338
G1 X113.221 Y111.809 E.05023
G1 X89.989 Y111.809 E.72842
G1 X88.708 Y111.465 E.04159
G1 X87.96 Y111.028 E.02716
G1 X87.237 Y110.345 E.03118
G1 X86.72 Y109.553 E.02966
G1 X86.311 Y108.138 E.04618
G1 X86.311 Y95.069 E.40977
G1 X86.656 Y93.786 E.04166
G1 X87.105 Y93.024 E.02773
G1 X87.843 Y92.259 E.03333
G1 X88.739 Y91.722 E.03275
G1 X89.25 Y91.574 E.01668
G1 X89.251 Y91.292 E.00884
G1 X88.612 Y91.103 E.02089
G1 X87.956 Y90.705 E.02406
G1 X87.266 Y90.06 E.02961
G1 X86.722 Y89.236 E.03096
G1 X86.318 Y87.872 E.0446
G1 X86.318 Y74.698 E.41306
G1 X86.662 Y73.472 E.03992
M204 S1000
G1 X87.025 Y73.574 F10800
M204 S800
G1 F1200
G1 X87.42 Y72.913 E.02414
G1 X88.06 Y72.248 E.02894
G1 X88.91 Y71.739 E.03106
G1 X89.964 Y71.456 E.03422
G1 X95.01 Y71.441 E.15821
G1 X95.922 Y71.378 E.02866
G1 X96.684 Y71.36 E.0239
G1 X98.21 Y71.445 E.04792
G1 X104.55 Y71.448 E.19879
G1 X105.416 Y71.432 E.02716
G1 X106.501 Y71.361 E.03409
G1 X107.243 Y71.376 E.02327
G1 X108.19 Y71.441 E.02976
G1 X113.269 Y71.463 E.15925
G1 X114.224 Y71.71 E.03093
G1 X114.983 Y72.126 E.02714
G1 X115.568 Y72.687 E.02541
G1 X116.08 Y72.185 E.02248
G1 X116.806 Y71.757 E.02642
G1 X117.855 Y71.462 E.03417
G1 X122.951 Y71.441 E.15978
G1 X123.862 Y71.378 E.02863
G1 X124.639 Y71.361 E.02437
G1 X126.15 Y71.445 E.04745
G1 X132.49 Y71.448 E.19879
G1 X133.356 Y71.432 E.02716
G1 X134.44 Y71.361 E.03406
G1 X135.183 Y71.376 E.0233
G1 X136.13 Y71.441 E.02976
G1 X141.21 Y71.463 E.15928
G1 X142.122 Y71.693 E.02949
G1 X142.966 Y72.159 E.03023
G1 X143.695 Y72.881 E.03217
G1 X144.131 Y73.599 E.02634
G1 X144.452 Y74.777 E.03828
G1 X144.452 Y87.785 E.40786
G1 X144.087 Y89.062 E.04164
G1 X143.711 Y89.661 E.02217
G1 X143.139 Y90.261 E.02599
G1 X142.391 Y90.748 E.02799
G1 X141.132 Y91.112 E.04109
G1 X117.955 Y91.112 E.7267
G1 X116.678 Y90.747 E.04164
G1 X116.111 Y90.395 E.02093
G1 X115.561 Y89.89 E.02341
G1 X115.206 Y90.255 E.01596
G1 X114.562 Y90.695 E.02446
G1 X113.192 Y91.112 E.0449
G1 X90.015 Y91.112 E.7267
G1 X88.784 Y90.767 E.04008
G1 X88.169 Y90.393 E.02257
G1 X87.566 Y89.831 E.02585
G1 X87.075 Y89.101 E.02758
G1 X86.688 Y87.791 E.04283
G1 X86.688 Y74.775 E.40811
G1 X87.009 Y73.632 E.03722
M204 S1000
G1 X87.371 Y73.735 F10800
M204 S800
G1 F1200
G1 X87.389 Y73.673 E.00202
G1 X87.728 Y73.131 E.02004
G1 X88.312 Y72.53 E.02628
G1 X89.079 Y72.077 E.02793
G1 X89.99 Y71.833 E.02957
G1 X95.024 Y71.818 E.15784
G1 X95.944 Y71.755 E.02891
G1 X96.685 Y71.737 E.02324
G1 X98.2 Y71.822 E.04758
G1 X104.554 Y71.825 E.19923
G1 X105.432 Y71.809 E.02753
M73 P2 R46
M73 Q2 S46
G1 X106.501 Y71.738 E.03359
G1 X107.222 Y71.753 E.02261
G1 X108.176 Y71.818 E.02998
G1 X113.243 Y71.84 E.15887
G1 X114.063 Y72.052 E.02656
G1 X114.778 Y72.444 E.02557
G1 X115.572 Y73.221 E.03483
G1 X116.293 Y72.497 E.03204
G1 X116.976 Y72.095 E.02485
G1 X117.93 Y71.833 E.03102
G1 X122.964 Y71.818 E.15784
G1 X123.884 Y71.755 E.02891
G1 X124.625 Y71.737 E.02324
G1 X126.14 Y71.822 E.04758
G1 X132.494 Y71.825 E.19923
G1 X133.372 Y71.809 E.02753
G1 X134.44 Y71.738 E.03356
G1 X135.161 Y71.753 E.02261
G1 X136.116 Y71.818 E.03001
G1 X141.184 Y71.84 E.15891
G1 X142.003 Y72.052 E.02653
G1 X142.758 Y72.475 E.02713
G1 X143.412 Y73.131 E.02904
G1 X143.775 Y73.726 E.02185
G1 X144.075 Y74.803 E.03505
G1 X144.075 Y87.758 E.40619
G1 X143.752 Y88.886 E.03679
G1 X143.424 Y89.415 E.01952
G1 X142.88 Y89.985 E.02471
G1 X142.257 Y90.395 E.02338
G1 X141.104 Y90.735 E.03769
G1 X117.982 Y90.735 E.72497
G1 X116.854 Y90.412 E.03679
M73 P2 R45
G1 X116.325 Y90.084 E.01952
G1 X115.806 Y89.601 E.02223
G1 X115.59 Y89.309 E.01139
G1 X114.973 Y89.958 E.02808
G1 X114.421 Y90.344 E.02112
G1 X113.163 Y90.735 E.0413
G1 X90.042 Y90.735 E.72494
G1 X88.914 Y90.412 E.03679
G1 X88.384 Y90.084 E.01954
G1 X87.841 Y89.572 E.0234
G1 X87.405 Y88.916 E.0247
G1 X87.065 Y87.764 E.03766
G1 X87.065 Y74.802 E.40641
G1 X87.354 Y73.793 E.03291
M204 S1000
G1 X87.71 Y73.895 F10800
M204 S800
G1 F1200
G1 X88.013 Y73.378 E.01879
G1 X88.565 Y72.811 E.02481
G1 X89.204 Y72.433 E.02328
G1 X90.016 Y72.21 E.0264
G1 X95.037 Y72.195 E.15743
G1 X95.965 Y72.131 E.02917
G1 X96.686 Y72.115 E.02261
G1 X98.189 Y72.199 E.0472
G1 X104.557 Y72.202 E.19966
G1 X105.448 Y72.186 E.02794
G1 X106.518 Y72.114 E.03362
G1 X107.209 Y72.13 E.02167
G1 X108.163 Y72.195 E.02998
G1 X113.175 Y72.211 E.15715
G1 X113.903 Y72.394 E.02354
G1 X114.572 Y72.761 E.02392
G1 X115.166 Y73.351 E.02625
G1 X115.569 Y73.979 E.0234
G1 X115.976 Y73.35 E.02349
G1 X116.542 Y72.781 E.02516
G1 X117.143 Y72.434 E.02176
G1 X117.956 Y72.21 E.02644
G1 X122.977 Y72.195 E.15743
G1 X123.905 Y72.131 E.02917
G1 X124.626 Y72.115 E.02261
G1 X126.129 Y72.199 E.0472
G1 X132.497 Y72.202 E.19966
G1 X133.388 Y72.186 E.02794
G1 X134.441 Y72.115 E.03309
G1 X135.14 Y72.129 E.02192
G1 X136.103 Y72.195 E.03027
G1 X141.159 Y72.217 E.15853
G1 X141.843 Y72.394 E.02215
G1 X142.512 Y72.761 E.02392
G1 X143.105 Y73.35 E.02621
G1 X143.421 Y73.856 E.0187
G1 X143.698 Y74.83 E.03175
G1 X143.698 Y87.732 E.40453
G1 X143.417 Y88.711 E.03194
G1 X143.135 Y89.172 E.01694
G1 X142.651 Y89.685 E.02211
G1 X142.119 Y90.043 E.02011
G1 X141.076 Y90.358 E.03416
G1 X118.008 Y90.358 E.72328
G1 X117.029 Y90.077 E.03194
G1 X116.568 Y89.795 E.01694
G1 X116.079 Y89.34 E.02094
G1 X115.559 Y88.597 E.02843
G1 X115.174 Y89.199 E.02241
G1 X114.74 Y89.66 E.01985
G1 X114.228 Y90.019 E.01961
G1 X113.135 Y90.358 E.03588
G1 X90.068 Y90.358 E.72325
G1 X89.089 Y90.077 E.03194
M73 Q2 S45
G1 X88.628 Y89.795 E.01694
G1 X88.115 Y89.311 E.02211
G1 X87.757 Y88.779 E.02011
G1 X87.442 Y87.736 E.03416
G1 X87.442 Y74.828 E.40472
G1 X87.693 Y73.953 E.02854
M204 S1000
;WIPE_START
G1 F8640
G1 X88.013 Y73.378 E-.15194
G1 X88.565 Y72.811 E-.18272
G1 X89.204 Y72.433 E-.17143
G1 X90.016 Y72.21 E-.19444
G1 X90.447 Y72.209 E-.09947
;WIPE_END
G1 Z.6 F720
G1 X115.759 Y74.856 F10800
G1 Z.2 F720
G1 E.8 F2100
M204 S800
G1 F1200
G1 X116.017 Y73.982 E.02857
G1 X116.26 Y73.598 E.01425
G1 X116.756 Y73.093 E.02219
G1 X117.271 Y72.789 E.01875
G1 X117.984 Y72.587 E.02324
G1 X122.991 Y72.572 E.15699
G1 X123.927 Y72.508 E.02942
G1 X124.627 Y72.492 E.02195
G1 X126.118 Y72.576 E.04682
G1 X132.5 Y72.579 E.2001
G1 X133.404 Y72.563 E.02835
G1 X134.458 Y72.492 E.03312
G1 X135.128 Y72.506 E.02101
G1 X136.09 Y72.572 E.03023
G1 X141.091 Y72.588 E.1568
G1 X141.683 Y72.736 E.01913
G1 X142.306 Y73.078 E.02228
G1 X142.822 Y73.6 E.02301
G1 X143.067 Y73.989 E.01441
G1 X143.321 Y74.858 E.02839
G1 X143.321 Y87.704 E.40278
G1 X143.064 Y88.578 E.02856
G1 X142.827 Y88.955 E.01396
G1 X142.42 Y89.387 E.01861
G1 X141.978 Y89.692 E.01684
G1 X141.046 Y89.981 E.03059
G1 X118.036 Y89.981 E.72146
G1 X117.162 Y89.724 E.02856
G1 X116.785 Y89.487 E.01396
G1 X116.353 Y89.08 E.01861
G1 X116.048 Y88.638 E.01684
G1 X115.759 Y87.706 E.03059
G1 X115.759 Y74.916 E.40102
M204 S1000
G1 X116.136 Y74.916 F10800
M204 S800
G1 F1200
G1 X116.369 Y74.118 E.02607
G1 X116.544 Y73.847 E.01011
G1 X116.973 Y73.402 E.01938
G1 X117.399 Y73.145 E.0156
G1 X118.062 Y72.956 E.02162
G1 X123.004 Y72.949 E.15495
G1 X123.948 Y72.884 E.02967
G1 X124.613 Y72.869 E.02086
G1 X126.108 Y72.953 E.04695
G1 X132.503 Y72.956 E.20051
G1 X133.42 Y72.94 E.02876
G1 X134.458 Y72.869 E.03262
G1 X135.106 Y72.883 E.02032
G1 X136.076 Y72.949 E.03048
G1 X141.067 Y72.965 E.15649
G1 X141.527 Y73.08 E.01487
G1 X142.059 Y73.365 E.01892
G1 X142.538 Y73.849 E.02135
G1 X142.732 Y74.164 E.0116
